SVG-Icons/Technical/Grafana/grafana-icon-card-blog.svg

<svg width="28" height="28" viewBox="0 0 28 28" fill="none" xmlns="http://www.w3.org/2000/svg">
<circle cx="14" cy="14" r="14" fill="#FDC9BE"/>
<path d="M12.1663 19.7901L8.23149 19.5123L7.95276 15.5765L12.6785 10.8508L17.4043 6.125L19.5115 8.23224L21.6178 10.3386L16.8921 15.0643L12.1663 19.7901Z" fill="#FB755A"/>
</svg>

<svg xmlns="http://www.w3.org/2000/svg" fill="none" viewBox="0 0 28 28"><circle cx="14" cy="14" r="14" fill="#FDC9BE"/><path fill="#FB755A" d="m12.166 19.79-3.935-.278-.278-3.936 4.725-4.725 4.726-4.726 2.108 2.107 2.106 2.107-4.726 4.725-4.726 4.726Z"/></svg>
